X: 30468
T: Old Wheels Of The World, The
R: reel
M: 4/4
K: Gmajor
eA~A2 eA~A2|GEEF G3E|A3 B cBcd|efge dgfg|
eA~A2 eA~A2|GEEF G3E|A3 B cBcd|efge d2Bc||
dg ~g2 dgfg|ea ~a2 eaag|efge defg|afge dcBc|
dg ~g2 dgfg|ea ~a2 eaag|efge defg|afge d3d||

